dist/svg/static/gas-range-small.svg

<svg xmlns="http://www.w3.org/2000/svg" width="24" height="24" viewBox="0 0 24 24"><g fill="none" stroke="currentColor" stroke-miterlimit="10"><path d="M7 21.5H1M23.498 21.5H9.502M9.5 19v5-5zM23.5 19v5-5z"/><g><path d="M15 10.5h1.5c.512 0 1 .488 1 1v5c0 .55.45 1 1 1h2c.55 0 1-.45 1-1v-10l-4-4M13.5 19V3.5a1 1 0 0 0-1-1h-9a1 1 0 0 0-1 1v18M19.5 4.5l1-1-1 1z"/><path stroke-linecap="round" d="M8 5.5s-3.5 6.516-3.5 9 1 3 1 3 .545-3 2.5-3 2.5 3 2.5 3 1-.484 1-3c0-2.515-3.5-9-3.5-9z"/></g></g></svg>

<?xml version="1.0" encoding="UTF-8" standalone="no"?>
<svg width="24px" height="24px" viewBox="0 0 24 24" version="1.1" xmlns="http://www.w3.org/2000/svg" xmlns:xlink="http://www.w3.org/1999/xlink">
    <!-- Generator: sketchtool 46.2 (44496) - http://www.bohemiancoding.com/sketch -->
    <title>gas-range-small</title>
    <desc>Created with sketchtool.</desc>
    <defs></defs>
    <g id="icons-published" stroke="none" stroke-width="1" fill="none" fill-rule="evenodd">
        <g id="briefing" transform="translate(-2084.000000, -666.000000)"></g>
        <g id="gas-range-small" stroke="#000000">
            <path d="M7,21.5 L1,21.5 L7,21.5 Z M23.5,21.5 L9.5,21.5 L23.5,21.5 Z M9.5,19 L9.5,24 L9.5,19 Z M23.5,19 L23.5,24 L23.5,19 Z" id="Shape"></path>
            <path d="M15,10.5 L16.5,10.5 C17,10.5 17.5,11 17.5,11.5 L17.5,16.5 C17.5,17 18,17.5 18.5,17.5 L20.5,17.5 C21,17.5 21.5,17 21.5,16.5 L21.5,6.5 L17.5,2.5 M13.5,19 L13.5,3.5 C13.5,2.9 13.1,2.5 12.5,2.5 L3.5,2.5 C2.9,2.5 2.5,2.9 2.5,3.5 L2.5,21.5 M19.5,4.5 L20.5,3.5" id="Shape"></path>
            <path d="M8,5.5 C8,5.5 4.5,12 4.5,14.5 C4.5,17 5.5,17.5 5.5,17.5 C5.5,17.5 6,14.5 8,14.5 C10,14.5 10.5,17.5 10.5,17.5 C10.5,17.5 11.5,17 11.5,14.5 C11.5,12 8,5.5 8,5.5 Z" id="Shape" stroke-linecap="round"></path>
        </g>
    </g>
</svg>
